X: 691
M: C
L: 1/8
K: F	% Mostly Dm
V: 1
|:\
|:\
defg afge | fdcA FGAc |
defg afge | fde^c d/d/d d2 |\
defg afge | fdcA FGAc | AcFc A/A/A ag | fde^c d/d/d d2 :|
V: 2 clef=bass middle=d
|:\
f2f2 f2f2 | f2f2 f2f2 |\
f2f2 f2f2 | d2A2 D2D2 :|\
|:\
d2d2 d2d2 | f2f2 f2f2 |
d2d2 d2d2 | A2A2 D2D2 |\
d2d2 d2d2 | f2f2 f2f2 |\
f2f2 f2f2 | d2A2 D2D2 :|

